X: 1
T: Barrel Rafferty's
R: reel
M: 4/4
L: 1/8
K: Dmix
A4|:GEcE EDD2|AcBG A2ge|edce edde|ged^c d2 cA|
GEcE EDD2|AcBG AAge|edce edde|ged^c d2 cA|
(3Bcd ef g2 ea|ageg ~g2ed|^cdef g2 ea|age^c d2 cA|
(3Bcd ef gg ea|agef g2 fg|afge fdez|1 dge^c d2=cA:|2 dfef d4||

